Newaita/actions/32/action-love-amarok.svg

<svg height="32" viewBox="0 0 32 32" width="32" xmlns="http://www.w3.org/2000/svg"><path d="m9.921875 4.226562c-4.003906 0-7.269531 3.265626-7.269531 7.269532 0 4.804687 2.714844 8.882812 5.59375 11.761718 1.441406 1.441407 2.933594 2.589844 4.234375 3.402344.652343.40625 1.25.726563 1.796875.960938.542968.230468.984375.40625 1.597656.40625.617188 0 1.058594-.175782 1.601562-.40625.542969-.234375 1.144532-.554688 1.792969-.960938 1.300781-.8125 2.796875-1.960937 4.234375-3.402344 2.882813-2.878906 5.597656-6.957031 5.597656-11.761718 0-4.003906-3.265624-7.269532-7.269531-7.269532-2.460937 0-4.636719 1.226563-5.957031 3.105469-1.316406-1.878906-3.496094-3.105469-5.953125-3.105469zm0 2.632813c2.59375 0 4.636719 2.042969 4.636719 4.636719-.003906.476562.242187.917968.652344 1.15625.410156.238281.917968.238281 1.328124 0 .410157-.238282.660157-.679688.652344-1.15625 0-2.59375 2.046875-4.636719 4.640625-4.636719 2.589844 0 4.636719 2.042969 4.636719 4.636719 0 3.792968-2.246094 7.324218-4.824219 9.902344-1.289062 1.289062-2.648437 2.328124-3.765625 3.027343-.5625.347657-1.0625.613281-1.441406.773438-.269531.117187-.496094.164062-.5625.183593-.066406-.019531-.289062-.066406-.5625-.183593-.378906-.160157-.878906-.425781-1.4375-.773438-1.117188-.699219-2.476562-1.738281-3.765625-3.027343-2.578125-2.578126-4.824219-6.109376-4.824219-9.902344 0-2.59375 2.046875-4.636719 4.636719-4.636719zm0 0" fill="#424242"/></svg>

<?xml version="1.0" encoding="UTF-8"?>
<svg xmlns="http://www.w3.org/2000/svg" xmlns:xlink="http://www.w3.org/1999/xlink" width="32px" height="32px" viewBox="0 0 32 32" version="1.1">
<g id="surface1">
<path style=" stroke:none;fill-rule:nonzero;fill:rgb(25.882354%,25.882354%,25.882354%);fill-opacity:1;" d="M 9.921875 4.226562 C 5.917969 4.226562 2.652344 7.492188 2.652344 11.496094 C 2.652344 16.300781 5.367188 20.378906 8.246094 23.257812 C 9.6875 24.699219 11.179688 25.847656 12.480469 26.660156 C 13.132812 27.066406 13.730469 27.386719 14.277344 27.621094 C 14.820312 27.851562 15.261719 28.027344 15.875 28.027344 C 16.492188 28.027344 16.933594 27.851562 17.476562 27.621094 C 18.019531 27.386719 18.621094 27.066406 19.269531 26.660156 C 20.570312 25.847656 22.066406 24.699219 23.503906 23.257812 C 26.386719 20.378906 29.101562 16.300781 29.101562 11.496094 C 29.101562 7.492188 25.835938 4.226562 21.832031 4.226562 C 19.371094 4.226562 17.195312 5.453125 15.875 7.332031 C 14.558594 5.453125 12.378906 4.226562 9.921875 4.226562 Z M 9.921875 6.859375 C 12.515625 6.859375 14.558594 8.902344 14.558594 11.496094 C 14.554688 11.972656 14.800781 12.414062 15.210938 12.652344 C 15.621094 12.890625 16.128906 12.890625 16.539062 12.652344 C 16.949219 12.414062 17.199219 11.972656 17.191406 11.496094 C 17.191406 8.902344 19.238281 6.859375 21.832031 6.859375 C 24.421875 6.859375 26.46875 8.902344 26.46875 11.496094 C 26.46875 15.289062 24.222656 18.820312 21.644531 21.398438 C 20.355469 22.6875 18.996094 23.726562 17.878906 24.425781 C 17.316406 24.773438 16.816406 25.039062 16.4375 25.199219 C 16.167969 25.316406 15.941406 25.363281 15.875 25.382812 C 15.808594 25.363281 15.585938 25.316406 15.3125 25.199219 C 14.933594 25.039062 14.433594 24.773438 13.875 24.425781 C 12.757812 23.726562 11.398438 22.6875 10.109375 21.398438 C 7.53125 18.820312 5.285156 15.289062 5.285156 11.496094 C 5.285156 8.902344 7.332031 6.859375 9.921875 6.859375 Z M 9.921875 6.859375 "/>
</g>
</svg>
